icons/funds-line.svg

<svg viewBox="0 0 24 24" fill="currentColor" xmlns="http://www.w3.org/2000/svg"><path d="M4.41085 14.5258L7.81249 11.1241L10.6409 13.9526L13.7978 10.7957L12.0049 9.00281H17.0049V14.0028L15.212 12.2099L10.6409 16.781L7.81249 13.9526L5.33834 16.4267C6.77158 18.5822 9.22233 20.0028 12.0049 20.0028C16.4232 20.0028 20.0049 16.4211 20.0049 12.0028C20.0049 7.58453 16.4232 4.00281 12.0049 4.00281C7.5866 4.00281 4.00488 7.58453 4.00488 12.0028C4.00488 12.8844 4.14747 13.7326 4.41085 14.5258ZM2.87288 16.084L2.86275 16.0739L2.86662 16.07C2.31276 14.8274 2.00488 13.4511 2.00488 12.0028C2.00488 6.47996 6.48204 2.00281 12.0049 2.00281C17.5277 2.00281 22.0049 6.47996 22.0049 12.0028C22.0049 17.5257 17.5277 22.0028 12.0049 22.0028C7.93574 22.0028 4.43426 19.5724 2.87288 16.084Z"/></svg>

<svg xmlns="http://www.w3.org/2000/svg" viewBox="0 0 24 24">
    <g>
        <path fill="none" d="M0 0h24v24H0z"/>
        <path d="M4.406 14.523l3.402-3.402 2.828 2.829 3.157-3.157L12 9h5v5l-1.793-1.793-4.571 4.571-2.828-2.828-2.475 2.474a8 8 0 1 0-.927-1.9zm-1.538 1.558l-.01-.01.004-.004A9.965 9.965 0 0 1 2 12C2 6.477 6.477 2 12 2s10 4.477 10 10-4.477 10-10 10c-4.07 0-7.57-2.43-9.132-5.919z"/>
    </g>
</svg>
